X:1
T:Eine Kleine Nachtmusik
T:Eine Kleine Nachtmusik
T:1st movement simplified
T:W.A.Mozart
C:W.A.Mozart
L:1/8
M:4/4
K:G
V:1 treble nm="Flute" snm="Fl."
V:1
 g3 d g3 d | gdgb d'4 | c'3 a c'3 a | c'afa d4 | g2 g3 bag | gf f3 ac'f | ag g3 bag | gf f3 ac'f | %8
 gg g/f/e/f/ gg b/a/g/a/ | bb d'/c'/b/c'/ d'4 |: d'4 e'4 | d'c'c'c' c'bbb | baaa gfef |1 %13
 g2 a2 b4 :|2 g8 |] %15

